assets/images/time.svg

<svg fill="none" height="9" viewBox="0 0 9 9" width="9" xmlns="http://www.w3.org/2000/svg" xmlns:xlink="http://www.w3.org/1999/xlink"><linearGradient id="a" gradientUnits="userSpaceOnUse" x1="7.09009" x2="7.09008" y1="-.552879" y2="18.8793"><stop offset="0" stop-color="#3a4a3e"/><stop offset="1" stop-color="#fff"/></linearGradient><path d="m8.64624 2.74832c-.22668-.53589-.55108-1.01711-.96429-1.43027-.41316-.413156-.89437-.737606-1.43027-.964294-.55496-.234731-1.14429-.353756-1.75168-.353756s-1.19672.119025-1.75168.353756c-.53589.226688-1.01711.551082-1.43027.964294-.413156.41321-.737606.89438-.964294 1.43027-.234731.55496-.353756 1.14429-.353756 1.75168s.119025 1.19672.353756 1.75168c.226688.5359.551082 1.01711.964294 1.43027.41316.41316.89438.73761 1.43027.96429.55496.23474 1.14429.35376 1.75168.35376s1.19672-.11902 1.75168-.35376c.5359-.22668 1.01711-.55108 1.43027-.96429.41316-.41316.73761-.89437.96429-1.43027.23474-.55496.35376-1.14429.35376-1.75168s-.11902-1.19672-.35376-1.75168zm-1.58332 3.22622c-.05141.09242-.14726.14456-.24604.14456-.04624 0-.09315-.01142-.13646-.03549l-2.31716-1.28886c-.08922-.04961-.14457-.14372-.14457-.24581v-2.72458c0-.15531.12595-.28125.28125-.28125.15531 0 .28125.12594.28125.28125v2.5592l2.1726 1.20842c.13574.07549.18456.24677.10907.3825z" fill="url(#a)"/></svg>

<svg width="9" height="9" viewBox="0 0 9 9" fill="none" xmlns="http://www.w3.org/2000/svg">
<path d="M8.64624 2.74832C8.41956 2.21243 8.09516 1.73121 7.68195 1.31805C7.26879 0.904894 6.78758 0.580444 6.25168 0.353756C5.69672 0.119025 5.10739 0 4.5 0C3.89261 0 3.30328 0.119025 2.74832 0.353756C2.21243 0.580444 1.73121 0.904838 1.31805 1.31805C0.904894 1.73126 0.580444 2.21243 0.353756 2.74832C0.119025 3.30328 0 3.89261 0 4.5C0 5.10739 0.119025 5.69672 0.353756 6.25168C0.580444 6.78758 0.904838 7.26879 1.31805 7.68195C1.73121 8.09511 2.21243 8.41956 2.74832 8.64624C3.30328 8.88098 3.89261 9 4.5 9C5.10739 9 5.69672 8.88098 6.25168 8.64624C6.78758 8.41956 7.26879 8.09516 7.68195 7.68195C8.09511 7.26879 8.41956 6.78758 8.64624 6.25168C8.88098 5.69672 9 5.10739 9 4.5C9 3.89261 8.88098 3.30328 8.64624 2.74832ZM7.06292 5.97454C7.01151 6.06696 6.91566 6.1191 6.81688 6.1191C6.77064 6.1191 6.72373 6.10768 6.68042 6.08361L4.36326 4.79475C4.27404 4.74514 4.21869 4.65103 4.21869 4.54894V1.82436C4.21869 1.66905 4.34464 1.54311 4.49994 1.54311C4.65525 1.54311 4.78119 1.66905 4.78119 1.82436V4.38356L6.95379 5.59198C7.08953 5.66747 7.13835 5.83875 7.06286 5.97448L7.06292 5.97454Z" fill="url(#paint0_linear_1405_165)"/>
<defs>
<linearGradient id="paint0_linear_1405_165" x1="7.09009" y1="-0.552879" x2="7.09008" y2="18.8793" gradientUnits="userSpaceOnUse">
<stop stop-color="#3A4A3E"/>
<stop offset="1" stop-color="white"/>
</linearGradient>
</defs>
</svg>
